; generated by Slic3r Prusa Edition 1.41.0+ on 2019-02-20 at 14:38:00

; 

; external perimeters extrusion width = 0.45mm
; perimeters extrusion width = 0.45mm
; infill extrusion width = 0.45mm
; solid infill extrusion width = 0.45mm
; top infill extrusion width = 0.40mm
; first layer extrusion width = 0.42mm

M201 X1000 Y1000 Z1000 E5000 ; sets maximum accelerations, mm/sec^2
M203 X200 Y200 Z12 E120 ; sets maximum feedrates, mm/sec
M204 P1250 R1250 T1250 ; sets acceleration (P, T) and retract acceleration (R), mm/sec^2
M205 X8.00 Y8.00 Z0.40 E1.50 ; sets the jerk limits, mm/sec
M205 S0 T0 ; sets the minimum extruding and travel feed rate, mm/sec
M107
M115 U3.4.1 ; tell printer latest fw version
M83  ; extruder relative mode
M104 S215 ; set extruder temp
M140 S60 ; set bed temp
M190 S60 ; wait for bed temp
M109 S215 ; wait for extruder temp
G28 W ; home all without mesh bed level
G80 ; mesh bed leveling
G1 Y-3.0 F1000.0 ; go outside print area
G92 E0.0
G1 X60.0 E9.0  F1000.0 ; intro line
M73 Q0 S71
M73 P0 R68
G1 X100.0 E12.5  F1000.0 ; intro line
G92 E0.0
M221 S95
M900 K30; Filament gcode
G21 ; set units to millimeters
G90 ; use absolute coordinates
M83 ; use relative distances for extrusion
;BEFORE_LAYER_CHANGE
G92 E0.0
;0.2


G1 E-0.80000 F2100.00000
G1 Z0.600 F10800.000
;AFTER_LAYER_CHANGE
;0.2
G1 X42.651 Y61.974
G1 Z0.200
G1 E0.80000 F2100.00000
M204 S1000
G1 F1200
G1 X44.031 Y61.024 E0.05256
G1 X45.767 Y59.983 E0.06347
G1 X47.639 Y58.992 E0.06639
G1 X49.478 Y58.141 E0.06355
G1 X53.165 Y56.771 E0.12334
G1 X57.027 Y55.765 E0.12511
G1 X60.934 Y55.145 E0.12404
G1 X64.918 Y54.890 E0.12518
G1 X183.733 Y54.525 E3.72538
G1 X187.718 Y54.686 E0.12504
G1 X191.728 Y55.222 E0.12686
G1 X195.534 Y56.113 E0.12257
G1 X197.494 Y56.729 E0.06442
G1 X199.359 Y57.424 E0.06239
G1 X201.194 Y58.217 E0.06268
G1 X202.959 Y59.091 E0.06175
G1 X204.747 Y60.097 E0.06434
G1 X206.480 Y61.194 E0.06431
G1 X208.100 Y62.341 E0.06225
G1 X209.749 Y63.640 E0.06579
G1 X211.326 Y65.020 E0.06571
G1 X212.763 Y66.407 E0.06264
G1 X214.304 Y68.046 E0.07052
G1 X215.695 Y69.681 E0.06733
G1 X217.977 Y72.755 E0.12002
G1 X219.553 Y75.285 E0.09346
G1 X221.394 Y78.867 E0.12629
G1 X222.859 Y82.503 E0.12291
G1 X223.765 Y85.366 E0.09416
G1 X224.407 Y87.933 E0.08296
G1 X226.413 Y96.923 E0.28880
G1 X226.372 Y100.011 E0.09682
G1 X224.037 Y110.757 E0.34481
G1 X222.777 Y115.136 E0.14289
G1 X221.324 Y118.998 E0.12935
G1 X219.836 Y122.272 E0.11276
G1 X217.607 Y126.355 E0.14585
G1 X215.779 Y129.222 E0.10662
G1 X212.924 Y133.085 E0.15061
G1 X210.617 Y135.803 E0.11177
G1 X207.066 Y139.452 E0.15964
G1 X203.726 Y142.422 E0.14013
G1 X200.276 Y145.091 E0.13678
G1 X196.720 Y147.460 E0.13399
G1 X193.053 Y149.530 E0.13201
G1 X189.378 Y151.252 E0.12726
G1 X185.492 Y152.712 E0.13014
G1 X183.108 Y153.433 E0.07809
G1 X180.596 Y154.052 E0.08114
G1 X176.588 Y154.745 E0.12752
G1 X174.093 Y154.999 E0.07865
G1 X171.691 Y155.111 E0.07539
G1 X78.269 Y155.473 E2.92922
G1 X74.284 Y155.238 E0.12515
G1 X70.355 Y154.662 E0.12449
G1 X66.726 Y153.825 E0.11680
G1 X64.069 Y153.022 E0.08700
G1 X60.450 Y151.660 E0.12127
G1 X57.818 Y150.470 E0.09056
G1 X54.571 Y148.753 E0.11516
G1 X51.836 Y147.092 E0.10031
G1 X48.379 Y144.675 E0.13226
G1 X45.978 Y142.778 E0.09593
G1 X42.710 Y139.876 E0.13705
G1 X40.228 Y137.395 E0.11004
G1 X37.962 Y134.872 E0.10633
G1 X35.788 Y132.169 E0.10874
G1 X33.921 Y129.571 E0.10031
G1 X32.098 Y126.711 E0.10634
G1 X29.956 Y122.800 E0.13981
G1 X28.546 Y119.756 E0.10519
G1 X26.949 Y115.556 E0.14088
G1 X25.696 Y111.230 E0.14122
G1 X25.066 Y108.315 E0.09350
G1 X23.588 Y100.062 E0.26289
G1 X23.626 Y96.906 E0.09897
G1 X25.297 Y88.297 E0.27496
G1 X25.969 Y85.616 E0.08666
G1 X26.765 Y83.088 E0.08308
G1 X28.339 Y79.161 E0.13268
G1 X30.222 Y75.517 E0.12858
G1 X32.453 Y72.068 E0.12880
G1 X33.945 Y70.117 E0.07699
G1 X35.412 Y68.391 E0.07104
G1 X36.874 Y66.831 E0.06704
G1 X38.378 Y65.377 E0.06561
G1 X39.958 Y63.995 E0.06579
G1 X41.688 Y62.637 E0.06899
G1 X42.601 Y62.008 E0.03474
; PURGING FINISHED
G1 F8640
G1 X44.031 Y61.024 E-0.40089
G1 X45.365 Y60.224 E-0.35911
G1 E-0.04000 F2100.00000
G1 Z0.800 F10800.000
G1 X136.157 Y95.018
G1 Z0.200
G1 E0.80000 F2100.00000
G1 F1200
G1 X136.281 Y94.892 E0.00554
G1 X136.513 Y94.765 E0.00828
G1 X136.754 Y94.653 E0.00834
G1 X136.905 Y94.607 E0.00495
G1 X138.252 Y93.954 E0.04694
G1 X138.386 Y93.914 E0.00439
G1 X138.992 Y93.618 E0.02115
G1 X140.573 Y92.821 E0.05552
G1 X140.737 Y92.712 E0.00617
G1 X142.071 Y92.022 E0.04707
G1 X142.231 Y91.911 E0.00611
G1 X142.953 Y91.532 E0.02559
G1 X143.129 Y91.411 E0.00667
G1 X144.174 Y90.827 E0.03753
G1 X144.329 Y90.715 E0.00602
G1 X144.655 Y90.540 E0.01158
G1 X144.828 Y90.417 E0.00667
G1 X145.652 Y89.938 E0.02989
G1 X146.147 Y89.607 E0.01867
G1 X146.769 Y89.234 E0.02274
G1 X149.448 Y87.444 E0.10101
G1 X149.722 Y87.227 E0.01094
G1 X150.141 Y86.953 E0.01573
G1 X150.439 Y86.716 E0.01191
G1 X150.859 Y86.437 E0.01581
G1 X151.119 Y86.223 E0.01058
G1 X151.244 Y86.150 E0.00453
G1 X151.520 Y85.925 E0.01116
G1 X151.665 Y85.837 E0.00531
G1 X151.937 Y85.611 E0.01109
G1 X152.463 Y85.233 E0.02031
G1 X153.237 Y84.608 E0.03120
G1 X153.339 Y84.548 E0.00371
G1 X153.713 Y84.228 E0.01544
G1 X153.855 Y84.136 E0.00530
G1 X154.337 Y83.717 E0.02002
G1 X154.460 Y83.639 E0.00456
G1 X154.833 Y83.312 E0.01557
G1 X154.935 Y83.250 E0.00376
G1 X155.514 Y82.736 E0.02427
G1 X155.653 Y82.641 E0.00528
G1 X156.234 Y82.116 E0.02454
G1 X156.333 Y82.054 E0.00368
G1 X157.131 Y81.321 E0.03397
G1 X157.249 Y81.240 E0.00448
G1 X158.331 Y80.219 E0.04665
G1 X158.429 Y80.156 E0.00366
G1 X160.529 Y78.093 E0.09230
G1 X161.915 Y76.671 E0.06226
G1 X161.977 Y76.576 E0.00356
G1 X162.999 Y75.493 E0.04668
G1 X163.079 Y75.376 E0.00445
G1 X163.814 Y74.577 E0.03404
G1 X163.875 Y74.482 E0.00355
G1 X164.995 Y73.198 E0.05341
G1 X165.072 Y73.081 E0.00439
G1 X165.895 Y72.104 E0.04008
G1 X165.971 Y71.984 E0.00443
G1 X167.018 Y70.680 E0.05244
G1 X168.993 Y68.006 E0.10424
G1 X170.502 Y65.793 E0.08399
G1 X170.671 Y65.501 E0.01057
G1 X171.402 Y64.392 E0.04165
G1 X172.074 Y63.279 E0.04076
G1 X172.259 Y63.097 E0.00814
G1 X172.644 Y63.008 E0.01238
G1 X172.770 Y62.959 E0.00425
G1 X173.043 Y62.905 E0.00873
G1 X173.169 Y62.858 E0.00422
G1 X173.852 Y62.709 E0.02192
G1 X173.974 Y62.662 E0.00410
G1 X174.307 Y62.608 E0.01060
G1 X174.436 Y62.562 E0.00428
G1 X174.756 Y62.506 E0.01020
G1 X174.876 Y62.462 E0.00399
G1 X175.718 Y62.311 E0.02684
G1 X175.883 Y62.260 E0.00542
G1 X176.342 Y62.198 E0.01451
G1 X176.483 Y62.154 E0.00464
G1 X176.931 Y62.097 E0.01414
G1 X177.033 Y62.060 E0.00341
G1 X177.545 Y61.997 E0.01617
G1 X177.688 Y61.955 E0.00466
G1 X178.249 Y61.897 E0.01768
G1 X178.390 Y61.856 E0.00460
G1 X179.049 Y61.796 E0.02075
G1 X179.193 Y61.757 E0.00468
G1 X179.957 Y61.697 E0.02405
G1 X180.054 Y61.665 E0.00320
G1 X181.169 Y61.596 E0.03503
G1 X181.264 Y61.566 E0.00311
G1 X182.824 Y61.511 E0.04894
G1 X183.781 Y61.501 E0.03002
G1 X185.286 Y61.519 E0.04719
G1 X186.291 Y61.554 E0.03152
G1 X186.467 Y61.564 E0.00554
G1 X186.563 Y61.595 E0.00315
G1 X187.564 Y61.658 E0.03145
G1 X187.688 Y61.693 E0.00403
G1 X188.416 Y61.752 E0.02290
G1 X188.579 Y61.793 E0.00528
G1 X189.119 Y61.847 E0.01700
G1 X189.291 Y61.892 E0.00558
G1 X189.824 Y61.952 E0.01682
G1 X189.972 Y61.997 E0.00484
G1 X190.425 Y62.054 E0.01434
G1 X190.589 Y62.104 E0.00535
G1 X190.983 Y62.163 E0.01250
G1 X191.079 Y62.200 E0.00323
G1 X191.380 Y62.248 E0.00954
G1 X191.527 Y62.299 E0.00488
G1 X191.884 Y62.357 E0.01135
G1 X191.991 Y62.398 E0.00361
G1 X192.235 Y62.441 E0.00775
G1 X192.398 Y62.498 E0.00543
G1 X193.042 Y62.644 E0.02071
G1 X193.189 Y62.700 E0.00493
G1 X193.432 Y62.749 E0.00777
G1 X193.801 Y62.858 E0.01205
G1 X193.907 Y62.904 E0.00363
G1 X195.099 Y63.264 E0.03905
G1 X195.425 Y63.399 E0.01105
G1 X196.158 Y63.646 E0.02424
G1 X196.515 Y63.801 E0.01222
G1 X196.703 Y63.858 E0.00617
G1 X197.040 Y64.012 E0.01159
G1 X197.205 Y64.064 E0.00542
G1 X197.951 Y64.409 E0.02578
G1 X198.109 Y64.461 E0.00520
G1 X199.771 Y65.283 E0.05815
G1 X201.379 Y66.195 E0.05796
G1 X202.188 Y66.724 E0.03031
G1 X202.511 Y66.913 E0.01172
G1 X202.778 Y67.117 E0.01053
G1 X203.494 Y67.597 E0.02705
G1 X204.718 Y68.519 E0.04806
G1 X205.182 Y68.919 E0.01920
G1 X205.328 Y69.018 E0.00550
G1 X205.802 Y69.441 E0.01993
G1 X205.925 Y69.523 E0.00462
G1 X207.009 Y70.538 E0.04657
G1 X207.105 Y70.603 E0.00364
G1 X207.848 Y71.337 E0.03276
G1 X209.244 Y72.831 E0.06410
G1 X209.325 Y72.952 E0.00458
G1 X209.848 Y73.533 E0.02450
G1 X209.927 Y73.655 E0.00458
G1 X210.347 Y74.136 E0.02001
G1 X210.443 Y74.282 E0.00547
G1 X211.054 Y75.040 E0.03054
G1 X211.129 Y75.166 E0.00460
G1 X211.650 Y75.842 E0.02674
G1 X212.075 Y76.460 E0.02352
G1 X212.874 Y77.674 E0.04556
G1 X213.351 Y78.497 E0.02983
G1 X213.475 Y78.674 E0.00678
G1 X213.849 Y79.381 E0.02507
G1 X214.073 Y79.758 E0.01374
G1 X215.027 Y81.675 E0.06715
G1 X215.066 Y81.809 E0.00439
G1 X215.426 Y82.579 E0.02663
G1 X215.464 Y82.713 E0.00438
G1 X215.622 Y83.053 E0.01176
G1 X215.668 Y83.216 E0.00530
G1 X216.019 Y84.055 E0.02853
G1 X216.174 Y84.533 E0.01575
G1 X216.323 Y84.879 E0.01181
G1 X216.566 Y85.653 E0.02544
G1 X216.719 Y86.063 E0.01371
G1 X216.775 Y86.330 E0.00856
G1 X216.926 Y86.767 E0.01450
G1 X216.971 Y86.963 E0.00630
G1 X217.027 Y87.089 E0.00433
G1 X217.078 Y87.354 E0.00847
G1 X217.134 Y87.493 E0.00470
G1 X217.182 Y87.755 E0.00834
G1 X217.327 Y88.201 E0.01472
G1 X217.374 Y88.474 E0.00866
G1 X217.424 Y88.595 E0.00412
G1 X217.481 Y88.950 E0.01126
G1 X217.528 Y89.062 E0.00381
G1 X217.579 Y89.361 E0.00952
G1 X217.632 Y89.500 E0.00466
G1 X217.678 Y89.841 E0.01078
G1 X217.734 Y90.003 E0.00540
G1 X217.783 Y90.357 E0.01119
G1 X217.836 Y90.503 E0.00486
G1 X217.881 Y90.869 E0.01158
G1 X217.930 Y91.004 E0.00449
G1 X217.983 Y91.464 E0.01451
G1 X218.033 Y91.606 E0.00472
G1 X218.082 Y92.072 E0.01469
G1 X218.124 Y92.180 E0.00364
G1 X218.182 Y92.777 E0.01880
G1 X218.228 Y92.909 E0.00439
G1 X218.282 Y93.590 E0.02142
G1 X218.324 Y93.710 E0.00397
G1 X218.384 Y94.594 E0.02778
G1 X218.424 Y94.713 E0.00396
G1 X218.487 Y96.076 E0.04278
G1 X218.527 Y96.222 E0.00473
G1 X218.564 Y97.950 E0.05421
G1 X218.562 Y99.126 E0.03685
G1 X218.526 Y100.690 E0.04907
G1 X218.487 Y100.804 E0.00379
G1 X218.432 Y102.059 E0.03937
G1 X218.387 Y102.212 E0.00501
G1 X218.337 Y103.062 E0.02668
G1 X218.288 Y103.226 E0.00537
G1 X218.231 Y103.996 E0.02422
G1 X218.186 Y104.123 E0.00423
G1 X218.133 Y104.697 E0.01807
G1 X218.084 Y104.837 E0.00465
G1 X218.032 Y105.402 E0.01778
G1 X217.984 Y105.523 E0.00408
G1 X217.935 Y105.973 E0.01420
G1 X217.881 Y106.126 E0.00508
G1 X217.833 Y106.575 E0.01416
G1 X217.778 Y106.723 E0.00495
G1 X217.727 Y107.107 E0.01215
G1 X217.677 Y107.228 E0.00409
G1 X217.627 Y107.610 E0.01208
G1 X217.579 Y107.718 E0.00373
G1 X217.538 Y108.007 E0.00915
G1 X217.481 Y108.148 E0.00475
G1 X217.434 Y108.483 E0.01062
G1 X217.378 Y108.618 E0.00458
G1 X217.333 Y108.911 E0.00931
G1 X217.281 Y109.031 E0.00409
G1 X217.242 Y109.284 E0.00802
G1 X217.178 Y109.443 E0.00539
G1 X217.133 Y109.713 E0.00856
G1 X217.076 Y109.842 E0.00443
G1 X217.030 Y110.115 E0.00867
G1 X216.977 Y110.230 E0.00396
G1 X216.944 Y110.415 E0.00589
G1 X216.884 Y110.549 E0.00462
G1 X216.842 Y110.790 E0.00765
G1 X216.778 Y110.935 E0.00497
G1 X216.742 Y111.117 E0.00581
G1 X216.683 Y111.248 E0.00453
G1 X216.641 Y111.490 E0.00771
G1 X216.578 Y111.633 E0.00490
G1 X216.546 Y111.794 E0.00512
G1 X216.478 Y111.943 E0.00514
G1 X216.441 Y112.120 E0.00569
G1 X216.380 Y112.249 E0.00446
G1 X216.344 Y112.419 E0.00544
G1 X216.278 Y112.562 E0.00495
G1 X216.247 Y112.718 E0.00499
G1 X216.182 Y112.857 E0.00480
G1 X216.147 Y113.020 E0.00524
G1 X215.976 Y113.464 E0.01491
G1 X215.941 Y113.621 E0.00507
G1 X215.874 Y113.760 E0.00483
G1 X215.838 Y113.922 E0.00520
G1 X215.772 Y114.057 E0.00471
G1 X215.735 Y114.220 E0.00525
G1 X215.582 Y114.555 E0.01155
G1 X215.549 Y114.700 E0.00466
G1 X215.473 Y114.858 E0.00548
G1 X215.441 Y114.998 E0.00451
G1 X215.279 Y115.355 E0.01229
G1 X215.236 Y115.524 E0.00548
G1 X215.074 Y115.863 E0.01178
G1 X215.042 Y116.000 E0.00440
G1 X214.777 Y116.572 E0.01978
G1 X214.738 Y116.725 E0.00493
G1 X214.479 Y117.260 E0.01865
G1 X214.441 Y117.403 E0.00465
G1 X213.776 Y118.774 E0.04778
G1 X213.741 Y118.906 E0.00426
G1 X213.380 Y119.630 E0.02539
G1 X213.264 Y119.800 E0.00644
G1 X212.585 Y121.131 E0.04685
G1 X212.364 Y121.492 E0.01328
G1 X212.079 Y122.037 E0.01928
G1 X211.959 Y122.198 E0.00631
G1 X211.788 Y122.529 E0.01167
G1 X211.661 Y122.703 E0.00675
G1 X211.482 Y123.044 E0.01208
G1 X211.354 Y123.212 E0.00663
G1 X211.184 Y123.530 E0.01129
G1 X211.053 Y123.702 E0.00680
G1 X210.679 Y124.334 E0.02301
G1 X210.553 Y124.494 E0.00638
G1 X210.484 Y124.629 E0.00477
G1 X210.354 Y124.795 E0.00660
G1 X210.285 Y124.930 E0.00476
G1 X210.154 Y125.096 E0.00664
G1 X210.078 Y125.242 E0.00513
G1 X209.947 Y125.405 E0.00658
G1 X209.882 Y125.531 E0.00443
G1 X209.658 Y125.806 E0.01114
G1 X209.589 Y125.937 E0.00463
G1 X209.449 Y126.110 E0.00699
G1 X209.379 Y126.245 E0.00476
G1 X209.159 Y126.512 E0.01083
G1 X209.090 Y126.641 E0.00461
G1 X208.947 Y126.812 E0.00700
G1 X208.875 Y126.944 E0.00470
G1 X208.648 Y127.214 E0.01108
G1 X208.576 Y127.345 E0.00469
G1 X208.353 Y127.610 E0.01084
G1 X208.274 Y127.748 E0.00500
G1 X207.951 Y128.121 E0.01548
G1 X207.886 Y128.241 E0.00428
G1 X207.646 Y128.517 E0.01146
G1 X207.573 Y128.647 E0.00469
G1 X207.150 Y129.124 E0.01998
G1 X207.083 Y129.243 E0.00428
G1 X206.746 Y129.620 E0.01586
G1 X206.678 Y129.741 E0.00435
G1 X206.145 Y130.324 E0.02478
G1 X206.069 Y130.451 E0.00462
G1 X205.346 Y131.228 E0.03327
G1 X205.275 Y131.346 E0.00434
G1 X203.445 Y133.232 E0.08240
G1 X203.357 Y133.375 E0.00525
G1 X203.215 Y133.462 E0.00524
G1 X201.236 Y135.387 E0.08656
G1 X201.109 Y135.462 E0.00462
G1 X200.327 Y136.194 E0.03359
G1 X200.206 Y136.264 E0.00437
G1 X199.735 Y136.694 E0.01998
G1 X199.608 Y136.767 E0.00461
G1 X199.136 Y137.196 E0.02001
G1 X199.006 Y137.269 E0.00466
G1 X198.530 Y137.693 E0.02000
G1 X198.401 Y137.765 E0.00461
G1 X198.130 Y138.004 E0.01133
G1 X197.999 Y138.076 E0.00469
G1 X197.624 Y138.401 E0.01557
G1 X197.499 Y138.468 E0.00443
G1 X197.226 Y138.704 E0.01132
G1 X197.099 Y138.771 E0.00451
G1 X196.824 Y139.003 E0.01128
G1 X196.692 Y139.073 E0.00469
G1 X196.421 Y139.302 E0.01111
G1 X196.294 Y139.368 E0.00448
G1 X196.128 Y139.508 E0.00682
G1 X195.993 Y139.577 E0.00476
G1 X195.724 Y139.799 E0.01094
G1 X195.591 Y139.867 E0.00468
G1 X195.125 Y140.209 E0.01812
G1 X194.993 Y140.274 E0.00460
G1 X194.829 Y140.406 E0.00661
G1 X194.693 Y140.474 E0.00475
G1 X194.529 Y140.606 E0.00662
G1 X194.393 Y140.674 E0.00475
G1 X194.229 Y140.806 E0.00663
G1 X194.091 Y140.874 E0.00480
G1 X193.924 Y141.005 E0.00666
G1 X193.781 Y141.075 E0.00500
G1 X193.618 Y141.203 E0.00650
G1 X193.295 Y141.374 E0.01146
G1 X193.123 Y141.508 E0.00682
G1 X192.792 Y141.680 E0.01173
G1 X192.627 Y141.806 E0.00648
G1 X192.291 Y141.980 E0.01189
G1 X192.122 Y142.109 E0.00666
G1 X191.785 Y142.279 E0.01183
G1 X191.618 Y142.403 E0.00652
G1 X190.887 Y142.781 E0.02580
G1 X190.716 Y142.904 E0.00662
G1 X188.002 Y144.263 E0.09515
G1 X187.854 Y144.299 E0.00478
G1 X187.100 Y144.665 E0.02629
G1 X186.951 Y144.700 E0.00478
G1 X186.399 Y144.965 E0.01923
G1 X186.247 Y144.998 E0.00486
G1 X185.899 Y145.167 E0.01214
G1 X185.748 Y145.200 E0.00482
G1 X185.398 Y145.367 E0.01218
G1 X185.239 Y145.400 E0.00508
G1 X184.897 Y145.561 E0.01184
G1 X184.741 Y145.594 E0.00500
G1 X184.601 Y145.668 E0.00497
G1 X184.444 Y145.699 E0.00500
G1 X184.296 Y145.773 E0.00518
G1 X184.143 Y145.802 E0.00491
G1 X183.996 Y145.875 E0.00514
G1 X183.842 Y145.904 E0.00493
G1 X183.494 Y146.061 E0.01195
G1 X183.324 Y146.095 E0.00544
G1 X183.197 Y146.160 E0.00448
G1 X182.945 Y146.203 E0.00802
G1 X182.801 Y146.273 E0.00504
G1 X182.640 Y146.302 E0.00513
G1 X182.497 Y146.373 E0.00500
G1 X182.334 Y146.401 E0.00518
G1 X182.196 Y146.468 E0.00482
G1 X182.023 Y146.498 E0.00550
G1 X181.895 Y146.562 E0.00448
G1 X181.638 Y146.602 E0.00817
G1 X181.495 Y146.670 E0.00496
G1 X181.324 Y146.699 E0.00544
G1 X181.193 Y146.763 E0.00455
G1 X180.929 Y146.800 E0.00838
G1 X180.792 Y146.865 E0.00476
G1 X180.532 Y146.902 E0.00822
