; generated by Slic3r Prusa Edition 1.41.0+ on 2019-02-20 at 14:40:03

; 

; external perimeters extrusion width = 0.45mm
; perimeters extrusion width = 0.45mm
; infill extrusion width = 0.45mm
; solid infill extrusion width = 0.45mm
; top infill extrusion width = 0.40mm
; first layer extrusion width = 0.42mm

M201 X1000 Y1000 Z1000 E5000 ; sets maximum accelerations, mm/sec^2
M203 X200 Y200 Z12 E120 ; sets maximum feedrates, mm/sec
M204 P1250 R1250 T1250 ; sets acceleration (P, T) and retract acceleration (R), mm/sec^2
M205 X8.00 Y8.00 Z0.40 E1.50 ; sets the jerk limits, mm/sec
M205 S0 T0 ; sets the minimum extruding and travel feed rate, mm/sec
M107
M115 U3.4.1 ; tell printer latest fw version
M83  ; extruder relative mode
M104 S215 ; set extruder temp
M140 S60 ; set bed temp
M190 S60 ; wait for bed temp
M109 S215 ; wait for extruder temp
G28 W ; home all without mesh bed level
G80 ; mesh bed leveling
G1 Y-3.0 F1000.0 ; go outside print area
G92 E0.0
G1 X60.0 E9.0  F1000.0 ; intro line
M73 Q0 S75
M73 P0 R71
G1 X100.0 E12.5  F1000.0 ; intro line
G92 E0.0
M221 S95
M900 K30; Filament gcode
G21 ; set units to millimeters
G90 ; use absolute coordinates
M83 ; use relative distances for extrusion
;BEFORE_LAYER_CHANGE
G92 E0.0
;0.2


G1 E-0.80000 F2100.00000
G1 Z0.600 F10800.000
;AFTER_LAYER_CHANGE
;0.2
G1 X65.932 Y57.325
G1 Z0.200
G1 E0.80000 F2100.00000
M204 S1000
G1 F1200
G1 X66.527 Y57.077 E0.02019
G1 X69.375 Y56.304 E0.09253
G1 X73.467 Y55.439 E0.13114
G1 X76.930 Y54.963 E0.10961
G1 X80.691 Y54.718 E0.11818
G1 X168.256 Y54.702 E2.74552
G1 X172.346 Y54.892 E0.12840
G1 X176.519 Y55.437 E0.13195
G1 X178.623 Y55.841 E0.06715
G1 X181.501 Y56.530 E0.09280
G1 X183.540 Y57.098 E0.06636
G1 X184.251 Y57.440 E0.02473
G1 X221.022 Y89.898 E1.53783
G1 X221.578 Y90.643 E0.02917
G1 X222.433 Y92.786 E0.07235
G1 X223.864 Y97.047 E0.14092
G1 X224.770 Y100.613 E0.11537
G1 X225.217 Y102.904 E0.07318
G1 X225.556 Y105.182 E0.07223
G1 X225.887 Y108.854 E0.11560
G1 X225.956 Y111.160 E0.07233
G1 X225.917 Y113.442 E0.07155
G1 X225.632 Y117.040 E0.11318
G1 X225.299 Y119.345 E0.07300
G1 X224.841 Y121.657 E0.07389
G1 X223.885 Y125.187 E0.11468
G1 X223.095 Y127.451 E0.07519
G1 X222.216 Y129.580 E0.07222
G1 X220.593 Y132.821 E0.11366
G1 X218.595 Y136.042 E0.11882
G1 X216.363 Y138.990 E0.11594
G1 X213.737 Y141.864 E0.12208
G1 X210.808 Y144.521 E0.12398
G1 X207.579 Y146.952 E0.12673
G1 X204.093 Y149.141 E0.12906
G1 X201.787 Y150.381 E0.08210
G1 X199.345 Y151.523 E0.08451
G1 X196.962 Y152.480 E0.08052
G1 X194.363 Y153.354 E0.08599
G1 X191.842 Y154.041 E0.08193
G1 X188.319 Y154.745 E0.11265
G1 X185.667 Y155.085 E0.08381
G1 X183.045 Y155.265 E0.08240
G1 X68.344 Y155.298 E3.59638
G1 X64.446 Y155.096 E0.12239
G1 X61.814 Y154.766 E0.08317
G1 X59.288 Y154.299 E0.08054
G1 X56.764 Y153.681 E0.08149
G1 X54.179 Y152.885 E0.08479
G1 X51.707 Y151.963 E0.08271
G1 X48.392 Y150.468 E0.11402
G1 X45.900 Y149.137 E0.08859
G1 X43.642 Y147.764 E0.08286
G1 X41.327 Y146.179 E0.08797
G1 X39.195 Y144.524 E0.08463
G1 X37.232 Y142.798 E0.08195
G1 X35.390 Y140.967 E0.08144
G1 X33.691 Y139.055 E0.08017
G1 X32.119 Y137.046 E0.08000
G1 X30.740 Y135.042 E0.07628
G1 X29.471 Y132.936 E0.07711
G1 X28.335 Y130.764 E0.07684
G1 X27.281 Y128.402 E0.08107
G1 X26.140 Y125.264 E0.10470
G1 X25.468 Y122.934 E0.07605
G1 X24.934 Y120.602 E0.07498
G1 X24.516 Y118.166 E0.07750
G1 X24.234 Y115.749 E0.07631
G1 X24.053 Y112.429 E0.10425
G1 X24.065 Y110.008 E0.07591
G1 X24.206 Y107.481 E0.07935
G1 X24.581 Y104.175 E0.10434
G1 X24.996 Y101.747 E0.07723
G1 X25.524 Y99.339 E0.07729
G1 X26.417 Y96.111 E0.10502
G1 X27.219 Y93.722 E0.07899
G1 X28.418 Y90.652 E0.10336
G1 X28.670 Y90.232 E0.01536
G1 X29.011 Y89.868 E0.01563
G1 X65.887 Y57.364 E1.54128
; PURGING FINISHED
G1 F8640
G1 X66.527 Y57.077 E-0.16186
G1 X69.027 Y56.398 E-0.59814
G1 E-0.04000 F2100.00000
G1 Z0.800 F10800.000
G1 X179.850 Y63.346
G1 Z0.200
G1 E0.80000 F2100.00000
G1 F1200
G1 X180.070 Y63.650 E0.01176
G1 X180.448 Y64.284 E0.02316
G1 X181.368 Y65.725 E0.05360
G1 X182.772 Y67.808 E0.07876
G1 X184.363 Y70.008 E0.08513
G1 X186.063 Y72.196 E0.08689
G1 X187.523 Y73.957 E0.07171
G1 X189.336 Y76.006 E0.08579
G1 X190.734 Y77.498 E0.06410
G1 X192.828 Y79.594 E0.09288
G1 X194.282 Y80.962 E0.06260
G1 X195.737 Y82.270 E0.06134
G1 X197.136 Y83.464 E0.05768
G1 X198.201 Y84.337 E0.04319
G1 X199.627 Y85.460 E0.05691
G1 X201.192 Y86.633 E0.06133
G1 X203.507 Y88.260 E0.08871
G1 X204.976 Y89.232 E0.05522
G1 X206.106 Y89.950 E0.04198
G1 X208.066 Y91.130 E0.07173
G1 X209.497 Y91.945 E0.05164
G1 X210.593 Y92.543 E0.03916
G1 X212.358 Y93.456 E0.06230
G1 X213.968 Y94.247 E0.05624
G1 X215.734 Y95.064 E0.06100
G1 X215.890 Y95.219 E0.00688
G1 X216.000 Y95.481 E0.00892
G1 X216.519 Y96.924 E0.04807
G1 X216.917 Y98.138 E0.04009
G1 X217.415 Y99.856 E0.05608
G1 X217.721 Y101.047 E0.03855
G1 X217.925 Y101.937 E0.02865
G1 X218.325 Y103.950 E0.06432
G1 X218.629 Y105.948 E0.06337
G1 X218.833 Y107.856 E0.06018
G1 X218.932 Y109.265 E0.04427
G1 X218.982 Y111.274 E0.06302
G1 X218.947 Y113.307 E0.06375
G1 X218.830 Y115.092 E0.05610
G1 X218.726 Y116.101 E0.03180
G1 X218.548 Y117.430 E0.04204
G1 X218.233 Y119.239 E0.05758
G1 X217.826 Y121.026 E0.05745
G1 X217.417 Y122.508 E0.04819
G1 X216.923 Y124.036 E0.05038
G1 X216.608 Y124.910 E0.02911
G1 X216.207 Y125.919 E0.03405
G1 X215.810 Y126.835 E0.03132
G1 X214.952 Y128.597 E0.06145
G1 X214.499 Y129.444 E0.03011
G1 X213.939 Y130.406 E0.03491
G1 X213.437 Y131.212 E0.02977
G1 X212.413 Y132.717 E0.05709
G1 X211.417 Y134.026 E0.05156
G1 X210.371 Y135.276 E0.05111
G1 X208.962 Y136.783 E0.06468
G1 X207.924 Y137.781 E0.04516
G1 X207.254 Y138.394 E0.02847
G1 X206.549 Y138.999 E0.02913
G1 X205.189 Y140.081 E0.05447
G1 X203.635 Y141.209 E0.06021
G1 X202.730 Y141.813 E0.03412
G1 X201.930 Y142.318 E0.02969
G1 X200.453 Y143.195 E0.05383
G1 X198.715 Y144.125 E0.06181
G1 X197.901 Y144.524 E0.02841
G1 X196.801 Y145.029 E0.03797
G1 X195.096 Y145.733 E0.05784
G1 X193.448 Y146.330 E0.05496
G1 X192.490 Y146.640 E0.03157
G1 X191.474 Y146.938 E0.03320
G1 X190.292 Y147.246 E0.03828
G1 X188.391 Y147.658 E0.06099
G1 X187.285 Y147.853 E0.03522
G1 X185.986 Y148.039 E0.04117
G1 X184.972 Y148.153 E0.03197
G1 X183.818 Y148.248 E0.03632
G1 X182.860 Y148.294 E0.03008
G1 X181.754 Y148.320 E0.03466
G1 X180.648 Y148.319 E0.03469
G1 X178.840 Y148.252 E0.05673
G1 X177.632 Y148.157 E0.03798
G1 X176.634 Y148.047 E0.03150
G1 X175.220 Y147.854 E0.04474
G1 X174.088 Y147.658 E0.03601
G1 X173.026 Y147.445 E0.03397
G1 X171.779 Y147.156 E0.04013
G1 X170.935 Y146.937 E0.02735
G1 X169.664 Y146.570 E0.04147
G1 X168.613 Y146.238 E0.03457
G1 X167.487 Y145.844 E0.03738
G1 X166.402 Y145.435 E0.03636
G1 X165.448 Y145.048 E0.03228
G1 X163.399 Y144.125 E0.07046
G1 X161.991 Y143.422 E0.04934
G1 X159.986 Y142.317 E0.07179
G1 X158.979 Y141.715 E0.03679
G1 X157.917 Y141.044 E0.03938
G1 X156.967 Y140.413 E0.03577
G1 X155.961 Y139.711 E0.03846
G1 X154.463 Y138.601 E0.05843
G1 X152.843 Y137.310 E0.06497
G1 X151.755 Y136.392 E0.04461
G1 X150.745 Y135.493 E0.04241
G1 X148.641 Y133.485 E0.09119
G1 X146.736 Y131.478 E0.08679
G1 X145.458 Y130.017 E0.06084
G1 X144.551 Y128.915 E0.04474
G1 X143.725 Y127.862 E0.04197
G1 X142.915 Y126.767 E0.04271
G1 X142.033 Y125.509 E0.04818
G1 X141.013 Y123.950 E0.05839
G1 X140.512 Y123.143 E0.02978
G1 X139.808 Y121.941 E0.04370
G1 X139.099 Y120.647 E0.04625
G1 X138.490 Y119.457 E0.04194
G1 X137.819 Y118.062 E0.04851
G1 X137.399 Y117.118 E0.03240
G1 X136.696 Y115.413 E0.05781
G1 X136.287 Y114.327 E0.03638
G1 X135.893 Y113.203 E0.03737
G1 X135.483 Y111.920 E0.04223
G1 X135.091 Y110.560 E0.04438
G1 X134.787 Y109.390 E0.03788
G1 X134.486 Y108.083 E0.04207
G1 X134.075 Y105.909 E0.06938
G1 X133.776 Y103.801 E0.06675
G1 X133.676 Y102.895 E0.02858
G1 X133.574 Y101.688 E0.03798
G1 X133.471 Y99.379 E0.07247
G1 X133.477 Y97.670 E0.05359
G1 X133.571 Y95.561 E0.06618
G1 X133.673 Y94.353 E0.03801
G1 X133.869 Y92.747 E0.05073
G1 X133.982 Y91.966 E0.02474
G1 X134.178 Y90.838 E0.03590
G1 X134.380 Y89.838 E0.03198
G1 X134.680 Y88.534 E0.04197
G1 X134.991 Y87.358 E0.03812
G1 X135.291 Y86.349 E0.03301
G1 X135.691 Y85.137 E0.04002
G1 X136.094 Y84.034 E0.03682
G1 X136.497 Y83.029 E0.03393
G1 X136.801 Y82.328 E0.02396
G1 X137.504 Y80.822 E0.05213
G1 X138.064 Y79.751 E0.03787
G1 X138.683 Y78.648 E0.03967
G1 X139.172 Y77.841 E0.02959
G1 X139.890 Y76.737 E0.04128
G1 X140.416 Y75.983 E0.02883
G1 X141.287 Y74.825 E0.04543
G1 X142.097 Y73.821 E0.04047
G1 X142.701 Y73.115 E0.02911
G1 X144.138 Y71.566 E0.06626
G1 X144.808 Y70.901 E0.02958
G1 X146.053 Y69.755 E0.05306
G1 X147.259 Y68.749 E0.04923
G1 X148.053 Y68.137 E0.03145
G1 X148.831 Y67.569 E0.03021
G1 X149.732 Y66.960 E0.03409
G1 X150.572 Y66.429 E0.03117
G1 X151.587 Y65.831 E0.03693
G1 X152.170 Y65.516 E0.02079
G1 X153.125 Y65.027 E0.03364
G1 X153.951 Y64.634 E0.02867
G1 X154.904 Y64.218 E0.03261
G1 X155.913 Y63.816 E0.03404
G1 X156.788 Y63.503 E0.02915
G1 X158.014 Y63.108 E0.04038
G1 X159.102 Y62.802 E0.03546
G1 X159.907 Y62.601 E0.02601
G1 X160.811 Y62.400 E0.02902
G1 X161.839 Y62.205 E0.03283
G1 X163.223 Y61.990 E0.04391
G1 X164.029 Y61.891 E0.02546
G1 X165.036 Y61.795 E0.03170
G1 X166.569 Y61.700 E0.04817
G1 X168.176 Y61.673 E0.05038
G1 X169.583 Y61.697 E0.04414
G1 X171.191 Y61.788 E0.05049
G1 X172.374 Y61.895 E0.03725
G1 X173.981 Y62.093 E0.05076
G1 X175.310 Y62.299 E0.04217
G1 X177.321 Y62.690 E0.06422
G1 X179.028 Y63.088 E0.05496
G1 X179.648 Y63.255 E0.02012
G1 X179.795 Y63.321 E0.00507
G1 X180.206 Y63.229 F10800.000
G1 X179.950 Y62.978
G1 F1200
G1 X179.775 Y62.898 E0.00603
G1 X179.120 Y62.722 E0.02128
G1 X177.400 Y62.321 E0.05538
G1 X175.375 Y61.927 E0.06467
G1 X174.033 Y61.719 E0.04258
G1 X172.414 Y61.520 E0.05113
G1 X171.219 Y61.412 E0.03764
G1 X169.597 Y61.320 E0.05092
G1 X168.176 Y61.296 E0.04457
G1 X166.554 Y61.323 E0.05085
G1 X165.006 Y61.419 E0.04864
G1 X163.988 Y61.516 E0.03205
G1 X163.171 Y61.616 E0.02581
G1 X161.775 Y61.833 E0.04430
G1 X160.735 Y62.031 E0.03321
G1 X159.821 Y62.234 E0.02935
G1 X159.006 Y62.437 E0.02634
G1 X157.905 Y62.747 E0.03586
G1 X156.667 Y63.146 E0.04079
G1 X155.779 Y63.464 E0.02955
G1 X154.759 Y63.870 E0.03444
G1 X153.794 Y64.291 E0.03300
G1 X152.958 Y64.688 E0.02903
G1 X151.994 Y65.182 E0.03394
G1 X151.401 Y65.502 E0.02114
G1 X150.376 Y66.107 E0.03734
G1 X149.526 Y66.645 E0.03153
G1 X148.615 Y67.261 E0.03448
G1 X147.827 Y67.835 E0.03058
G1 X147.023 Y68.455 E0.03184
G1 X145.806 Y69.471 E0.04970
G1 X144.547 Y70.629 E0.05364
G1 X143.867 Y71.303 E0.03001
G1 X142.419 Y72.864 E0.06675
G1 X141.807 Y73.580 E0.02952
G1 X140.989 Y74.593 E0.04084
G1 X140.111 Y75.762 E0.04584
G1 X139.577 Y76.527 E0.02924
G1 X138.853 Y77.640 E0.04166
G1 X138.358 Y78.458 E0.02997
G1 X137.732 Y79.572 E0.04004
G1 X137.166 Y80.655 E0.03831
G1 X136.457 Y82.173 E0.05255
G1 X136.149 Y82.884 E0.02429
G1 X135.742 Y83.899 E0.03428
G1 X135.334 Y85.013 E0.03719
G1 X134.931 Y86.236 E0.04038
G1 X134.627 Y87.256 E0.03337
G1 X134.314 Y88.443 E0.03850
G1 X134.011 Y89.758 E0.04232
G1 X133.807 Y90.768 E0.03230
G1 X133.609 Y91.907 E0.03623
G1 X133.495 Y92.697 E0.02504
G1 X133.298 Y94.314 E0.05108
G1 X133.194 Y95.537 E0.03847
G1 X133.100 Y97.661 E0.06666
G1 X133.094 Y99.387 E0.05412
G1 X133.197 Y101.712 E0.07299
G1 X133.300 Y102.932 E0.03837
G1 X133.402 Y103.848 E0.02891
G1 X133.703 Y105.970 E0.06721
G1 X134.116 Y108.160 E0.06988
G1 X134.421 Y109.480 E0.04247
G1 X134.727 Y110.659 E0.03821
G1 X135.123 Y112.029 E0.04470
G1 X135.535 Y113.323 E0.04256
G1 X135.933 Y114.456 E0.03767
G1 X136.346 Y115.552 E0.03670
G1 X137.053 Y117.266 E0.05815
G1 X137.477 Y118.220 E0.03274
G1 X138.152 Y119.624 E0.04884
G1 X138.766 Y120.824 E0.04226
G1 X139.480 Y122.127 E0.04658
G1 X140.190 Y123.338 E0.04402
G1 X140.695 Y124.153 E0.03008
G1 X141.721 Y125.720 E0.05872
G1 X142.609 Y126.987 E0.04852
G1 X143.425 Y128.091 E0.04303
G1 X144.257 Y129.151 E0.04227
G1 X145.170 Y130.261 E0.04506
G1 X146.457 Y131.732 E0.06126
G1 X148.374 Y133.751 E0.08732
G1 X150.490 Y135.770 E0.09169
G1 X151.508 Y136.677 E0.04277
G1 X152.604 Y137.602 E0.04494
G1 X154.234 Y138.901 E0.06535
G1 X155.741 Y140.017 E0.05881
G1 X156.755 Y140.724 E0.03876
G1 X157.712 Y141.361 E0.03604
G1 X158.781 Y142.036 E0.03967
G1 X159.798 Y142.644 E0.03714
G1 X161.816 Y143.756 E0.07224
G1 X163.238 Y144.466 E0.04982
G1 X165.300 Y145.394 E0.07091
G1 X166.265 Y145.787 E0.03265
G1 X167.359 Y146.198 E0.03665
G1 X168.494 Y146.596 E0.03770
G1 X169.555 Y146.931 E0.03490
G1 X170.835 Y147.301 E0.04178
G1 X171.689 Y147.522 E0.02767
G1 X172.946 Y147.813 E0.04046
G1 X174.019 Y148.029 E0.03430
G1 X175.162 Y148.227 E0.03638
G1 X176.588 Y148.422 E0.04511
G1 X177.597 Y148.532 E0.03184
G1 X178.818 Y148.629 E0.03841
G1 X180.641 Y148.696 E0.05719
G1 X181.759 Y148.698 E0.03505
G1 X182.873 Y148.671 E0.03496
G1 X183.842 Y148.624 E0.03042
G1 X185.009 Y148.529 E0.03670
G1 X186.033 Y148.413 E0.03232
G1 X187.345 Y148.226 E0.04154
G1 X188.462 Y148.029 E0.03557
G1 X189.539 Y147.808 E0.03445
G1 X190.382 Y147.612 E0.02716
G1 X191.575 Y147.302 E0.03862
G1 X192.601 Y147.001 E0.03354
G1 X193.570 Y146.687 E0.03194
G1 X195.232 Y146.085 E0.05542
G1 X196.952 Y145.375 E0.05834
G1 X198.063 Y144.864 E0.03835
G1 X198.887 Y144.461 E0.02877
G1 X200.639 Y143.523 E0.06228
G1 X202.126 Y142.640 E0.05426
G1 X202.936 Y142.129 E0.03000
G1 X203.851 Y141.518 E0.03450
G1 X205.418 Y140.381 E0.06071
G1 X206.789 Y139.289 E0.05495
G1 X207.504 Y138.677 E0.02954
G1 X208.182 Y138.056 E0.02881
G1 X209.231 Y137.048 E0.04562
G1 X210.654 Y135.526 E0.06532
G1 X211.712 Y134.261 E0.05171
G1 X212.719 Y132.938 E0.05215
G1 X213.753 Y131.418 E0.05764
G1 X214.262 Y130.600 E0.03019
G1 X214.828 Y129.628 E0.03530
G1 X215.287 Y128.771 E0.03048
G1 X215.759 Y127.830 E0.03300
G1 X216.153 Y126.991 E0.02908
G1 X216.556 Y126.064 E0.03168
G1 X216.961 Y125.043 E0.03442
G1 X217.280 Y124.158 E0.02949
G1 X217.778 Y122.616 E0.05083
G1 X218.192 Y121.118 E0.04872
G1 X218.602 Y119.314 E0.05802
G1 X218.921 Y117.487 E0.05812
G1 X219.100 Y116.145 E0.04245
G1 X219.206 Y115.124 E0.03219
G1 X219.324 Y113.322 E0.05661
G1 X219.360 Y111.272 E0.06429
G1 X219.309 Y109.247 E0.06353
G1 X219.209 Y107.823 E0.04475
G1 X219.004 Y105.899 E0.06066
G1 X218.696 Y103.884 E0.06390
G1 X218.294 Y101.858 E0.06476
G1 X218.087 Y100.958 E0.02898
G1 X217.779 Y99.757 E0.03888
G1 X217.278 Y98.027 E0.05647
G1 X216.875 Y96.801 E0.04046
G1 X216.352 Y95.343 E0.04856
G1 X216.208 Y95.003 E0.01159
G1 X215.952 Y94.750 E0.01130
G1 X214.130 Y93.906 E0.06293
G1 X212.528 Y93.120 E0.05598
G1 X211.375 Y92.523 E0.04071
G1 X211.919 Y91.644 E0.03241
G1 X213.212 Y89.414 E0.08084
G1 X213.212 Y89.182 E0.00728
G1 X214.127 Y89.660 E0.03236
G1 X216.639 Y90.871 E0.08745
G1 X219.120 Y91.962 E0.08497
G1 X219.856 Y93.822 E0.06274
G1 X220.577 Y95.838 E0.06712
G1 X221.243 Y97.975 E0.07020
G1 X221.540 Y99.054 E0.03506
G1 X221.836 Y100.238 E0.03830
G1 X222.050 Y101.174 E0.03009
G1 X222.326 Y102.527 E0.04329
G1 X222.635 Y104.340 E0.05766
G1 X222.821 Y105.684 E0.04253
G1 X223.026 Y107.694 E0.06335
G1 X223.116 Y109.034 E0.04213
G1 X223.173 Y111.178 E0.06723
G1 X223.139 Y113.352 E0.06817
G1 X223.018 Y115.288 E0.06084
G1 X222.825 Y117.097 E0.05703
G1 X222.724 Y117.857 E0.02406
G1 X222.530 Y119.056 E0.03808
G1 X222.330 Y120.123 E0.03404
G1 X222.129 Y121.059 E0.03001
G1 X221.834 Y122.279 E0.03935
G1 X221.551 Y123.306 E0.03340
G1 X221.244 Y124.324 E0.03333
G1 X220.950 Y125.209 E0.02926
G1 X220.358 Y126.822 E0.05388
G1 X219.962 Y127.797 E0.03299
G1 X219.571 Y128.688 E0.03052
G1 X219.172 Y129.535 E0.02934
G1 X218.679 Y130.518 E0.03449
G1 X218.109 Y131.571 E0.03754
G1 X217.587 Y132.472 E0.03266
G1 X216.989 Y133.441 E0.03568
G1 X216.401 Y134.329 E0.03342
G1 X215.436 Y135.677 E0.05197
G1 X214.235 Y137.204 E0.06091
G1 X213.460 Y138.105 E0.03726
G1 X212.663 Y138.980 E0.03712
G1 X211.787 Y139.881 E0.03940
G1 X211.024 Y140.620 E0.03331
G1 X209.941 Y141.608 E0.04597
G1 X209.037 Y142.381 E0.03729
G1 X208.411 Y142.886 E0.02523
G1 X206.864 Y144.057 E0.06082
G1 X206.138 Y144.572 E0.02790
G1 X204.951 Y145.367 E0.04479
G1 X203.902 Y146.028 E0.03889
G1 X202.879 Y146.636 E0.03732
